X: 39841
T: Thirteen Dwarfs
R: jig
M: 6/8
K: Gminor
GDG B2 d|_d2 B A2 c|B2 D DCD|^F2 A d2c|
BGB d2 g|^f2 d ^c2 d|B2 G BAG|^FD2 d3|
GDG B2 d|_d2 B A2 c|B2 D DCD|^F2 A d2c|
B3 Bcd|A3 cBA|BG2 ^F2 A|G2A BAG|
E2 G B2 A|D3 D^CD|A2 G A2 c|Bc2 d3|
ec^G ^Fdc|BAB G3|D^CD B2 ^F|G2 A BAG|
F2 A c2 A|D3 D^CD|A2 G A2 c|Bc2 d3|
ec^G ^Fdc|BAB g3|D^CD B^F2|G3 z3|

